public/assets/email.svg

<?xml version="1.0" encoding="utf-8"?><!-- Uploaded to: SVG Repo, www.svgrepo.com, Generator: SVG Repo Mixer Tools -->
<svg width="800px" height="800px" viewBox="0 0 24 24" fill="none" xmlns="http://www.w3.org/2000/svg">
<path d="M4 7L10.94 11.3375C11.5885 11.7428 12.4115 11.7428 13.06 11.3375L20 7M5 18H19C20.1046 18 21 17.1046 21 16V8C21 6.89543 20.1046 6 19 6H5C3.89543 6 3 6.89543 3 8V16C3 17.1046 3.89543 18 5 18Z" stroke="#000000" stroke-width="2" stroke-linecap="round" stroke-linejoin="round"/>
</svg>

<svg xmlns="http://www.w3.org/2000/svg" width="800" height="800" viewBox="0 0 24 24" fill="none" xmlns:v="https://vecta.io/nano"><path d="M4 7l6.94 4.338a2 2 0 0 0 2.12 0L20 7M5 18h14a2 2 0 0 0 2-2V8a2 2 0 0 0-2-2H5a2 2 0 0 0-2 2v8a2 2 0 0 0 2 2z" stroke="#000" stroke-width="2" stroke-linecap="round" stroke-linejoin="round"/></svg>
